resources/svg/clipboard-tick-o.svg

<svg xmlns="http://www.w3.org/2000/svg" viewBox="0 0 15 15" fill="none"><path d="M11 1.5H13.5V13.5C13.5 14.0523 13.0523 14.5 12.5 14.5H2.5C1.94772 14.5 1.5 14.0523 1.5 13.5V1.5H4M5 8.5L7 10.5L10.5 6.5M4.5 0.5H10.5V2.5C10.5 3.05228 10.0523 3.5 9.5 3.5H5.5C4.94772 3.5 4.5 3.05228 4.5 2.5V0.5Z" stroke="black"/></svg>

<svg xmlns="http://www.w3.org/2000/svg" viewBox="0 0 15 15" fill="none"><path d="M11 1.5h2.5v12a1 1 0 01-1 1h-10a1 1 0 01-1-1v-12H4m1 7l2 2 3.5-4m-6-6h6v2a1 1 0 01-1 1h-4a1 1 0 01-1-1v-2z" stroke="currentColor"/></svg>
